incomeartour/img/icons/email.svg

<svg width="22" height="16" viewBox="0 0 22 16" fill="none" xmlns="http://www.w3.org/2000/svg">
<path d="M18.8391 0.151947H2.8268C1.33356 0.151947 0.118652 1.36685 0.118652 2.8601V13.1401C0.118652 14.6334 1.33356 15.8483 2.8268 15.8483H18.8391C20.3323 15.8483 21.5472 14.6334 21.5472 13.1401V2.8601C21.5472 1.36685 20.3323 0.151947 18.8391 0.151947ZM18.416 1.89884L10.8329 7.75664L3.2499 1.89884H18.416ZM18.8391 14.1015H2.8268C2.2968 14.1015 1.86555 13.6702 1.86555 13.1402V3.03688L10.299 9.55164C10.4562 9.6731 10.6446 9.73378 10.8329 9.73378C11.0213 9.73378 11.2097 9.6731 11.3669 9.55164L19.8003 3.03688V13.1401C19.8003 13.6702 19.3691 14.1015 18.8391 14.1015Z" fill="#272727"/>
</svg>

<svg width="22" height="16" fill="none" xmlns="http://www.w3.org/2000/svg"><path d="M18.84.152H2.826A2.711 2.711 0 00.119 2.86v10.28a2.711 2.711 0 002.708 2.708h16.012a2.711 2.711 0 002.708-2.708V2.86A2.711 2.711 0 0018.84.152zm-.424 1.747l-7.583 5.858L3.25 1.899h15.166zm.423 12.203H2.827a.962.962 0 01-.961-.962V3.037l8.433 6.515a.872.872 0 001.068 0L19.8 3.037V13.14c0 .53-.43.961-.96.961z" fill="#272727"/></svg>
